app/images/icons/left-arrow.svg

<svg xmlns="http://www.w3.org/2000/svg" xmlns:xlink="http://www.w3.org/1999/xlink" width="35pt" height="35pt" viewBox="0 0 35 35" version="1.1"><path style=" stroke:none;fill-rule:nonzero;fill:rgb(255%,255%,255%);fill-opacity:1;" d="M 14.128906 17.507812 L 27.222656 4.414062 C 27.582031 4.054688 27.78125 3.574219 27.78125 3.058594 C 27.78125 2.546875 27.582031 2.066406 27.222656 1.707031 L 26.074219 0.558594 C 25.714844 0.199219 25.234375 0 24.722656 0 C 24.207031 0 23.726562 0.199219 23.367188 0.558594 L 7.777344 16.148438 C 7.414062 16.511719 7.21875 16.992188 7.21875 17.507812 C 7.21875 18.023438 7.414062 18.503906 7.777344 18.867188 L 23.351562 34.441406 C 23.714844 34.800781 24.195312 35 24.707031 35 C 25.21875 35 25.699219 34.800781 26.058594 34.441406 L 27.207031 33.292969 C 27.953125 32.546875 27.953125 31.332031 27.207031 30.585938 Z M 14.128906 17.507812 "/></svg>

<svg xmlns="http://www.w3.org/2000/svg" width="35pt" height="35pt" viewBox="0 0 35 35"><path d="M14.129 17.508L27.223 4.414c.359-.36.558-.84.558-1.355a1.9 1.9 0 00-.558-1.352L26.074.559A1.9 1.9 0 0024.723 0c-.516 0-.996.2-1.356.559l-15.59 15.59a1.902 1.902 0 00-.558 1.359c0 .515.195.996.558 1.36L23.352 34.44c.363.36.843.559 1.355.559a1.9 1.9 0 001.352-.559l1.148-1.148a1.917 1.917 0 000-2.707zm0 0" fill="#fff"/></svg>
